X: 1021
T: Hicaz Peşrev
C: Neyzen Salim Bey
O: Turkey
F: http://compmusic.upf.edu/node/140
N: hicaz--pesrev--fahte----neyzen_salim_bey
N: makam= hicaz
N: form= pesrev
N: usul= fahte = 20/4
M: 20/4
L: 1/16
K: C _7/8B ^f ^c 
Q: 1/4=72
%%MIDI tuningsystem comma53
G6BA A8  | BcBA B2c2 dcBA G2A2  | G2{c}BA A4 A2B2 A2G2  | 
w:  1. HANE  |   |   | 
d3c B2A2 ABAG FGAF  | G4 F2G2 A2BA G2A2  | \
w:   |   | 
B2cB A2B2 c2d2 c2d2  | 
w:   | 
e=fed cdcB A4 c2d2  | e2fg =fed2 efed c2d2  | 
w:   |   | 
c2de =fedc d2e^f g2=fe  | eddc d2e=f edcB AGFG  | 
w:   |   | 
A6B2 cde=f edcB  | A4 c2d2 e2=fe d2ed  | \
w:   |   | 
c2dc B2cB A4 e=fed  | 
w:   | 
e2f2 g3f e2d2 c2d2  | cde=f edcB A4 B2c2  | \
w:   |   | 
dcBA G2A2 G2A2 B2{c}BA  | 
w:   | 
A6^G2 A2cB BAAG  | ^G=FFE F2G2 A6B2  | \
w:   |   | 
ABcA B8 A2B2  | 
w:   | 
c2d4c2 eddc d2e2  | d4 c2d2 e6d2  | e=fed c2d2 e2^f2 g2a2  | 
w:   |  TESLİM  |   | 
z=b2a g2f2 z2ef e2fg  | a3g f2e2 z2de d2ef  | 
w:   |   | 
g3=f e2d2 z2cd c2d2  | e2dc d2cB c2BA A4  | \
w:   |   | 
ABAG A2B2 c2d2 e2fa  | 
w:   | 
g3=f e2d2 c2{d}cB A2c2  | B3A G2A2 G2A2 BcBA  | \
w:   |   | 
A6F2 G2F2 A4  | 
w:   | 
G4 A8 e2=f2  | e3d c2d2 c2d2 e2=f2  | \
w:  2. HANE  |   | 
d4 e4 z2=f2 e2d2  | g3=f e2d2 ed=c=B c2d2  | 
w:   |   | 
=c4 e2=f2 e4 d4  | =c4 =B4 A4 Bcde  | \
w:   |   | 
d=c=BA ^G2A2 G2AB cBAG  | 
w:   | 
A=B=c^d e=f^gf edcd e4  | z4 e2=f2 e4 ^d4  | \
w:   |   | 
e2=f2 e2f2 ^g4 a4  | 
w:   | 
e2=f2 ^g2a2 g2a2 =b2=c'2  | =b3a ^g2a2 g2a2 b2g2  | \
w:   |   | 
a6^9/8f2 e6d2  | cdc=B cde^9/8f edcB A2B2  | 
w:   |   | 
A4 c2d2 e6=f2  | =f2d4e4c4A2  | B2{c}BA B2d2 c3B cBBA  | 
w:   |   |   | 
Aag=f edcB ABAG A2B2  | c2d2 e2=f2 e3d c2d2  | 
w:   |   | 
c2de =fedc dd'=c'=b ag^fe  | d4 c2d2 e6d2  | \
w:   |  TESLİM  | 
e=fed c2d2 e2^f2 g2a2  | 
w:   | 
z=b2a g2f2 z2ef e2fg  | a3g f2e2 z2de d2ef  | 
w:   |   | 
g3=f e2d2 z2cd c2d2  | e2dc d2cB c2BA A4  | \
w:   |   | 
ABAG A2B2 c2d2 e2fa  | 
w:   | 
g3=f e2d2 c2{d}cB A2c2  | B3A G2A2 G2A2 BcBA  | \
w:   |   | 
A6F2 G2F2 A4  | 
w:   | 
|


